src/lib/packages/icons/src/assets/filled/presentation-poll.svg

<svg width="24" height="24" viewBox="0 0 24 24" fill="none" xmlns="http://www.w3.org/2000/svg">
<path d="M21 2.25H3C2.586 2.25 2.25 2.586 2.25 3C2.25 3.414 2.586 3.75 3 3.75H4V13C4 15.29 5.21 16.5 7.5 16.5H11.25V18.6L8.57999 20.38C8.23999 20.61 8.15 21.07 8.38 21.42C8.61 21.76 9.07001 21.85 9.42001 21.62L12 19.9L14.58 21.62C14.71 21.71 14.86 21.75 15 21.75C15.24 21.75 15.48 21.63 15.62 21.42C15.85 21.07 15.76 20.61 15.42 20.38L12.75 18.6V16.5H16.5C18.79 16.5 20 15.29 20 13V3.75H21C21.414 3.75 21.75 3.414 21.75 3C21.75 2.586 21.414 2.25 21 2.25ZM9.25 12.5C9.25 12.914 8.914 13.25 8.5 13.25C8.086 13.25 7.75 12.914 7.75 12.5V8.5C7.75 8.086 8.086 7.75 8.5 7.75C8.914 7.75 9.25 8.086 9.25 8.5V12.5ZM12.75 12.5C12.75 12.914 12.414 13.25 12 13.25C11.586 13.25 11.25 12.914 11.25 12.5V6.5C11.25 6.086 11.586 5.75 12 5.75C12.414 5.75 12.75 6.086 12.75 6.5V12.5ZM16.25 12.5C16.25 12.914 15.914 13.25 15.5 13.25C15.086 13.25 14.75 12.914 14.75 12.5V10.5C14.75 10.086 15.086 9.75 15.5 9.75C15.914 9.75 16.25 10.086 16.25 10.5V12.5Z" fill="currentColor"/>
</svg>

<svg xmlns="http://www.w3.org/2000/svg" width="24" height="24" fill="none"><path fill="currentColor" d="M21 2.25H3a.75.75 0 0 0 0 1.5h1V13c0 2.29 1.21 3.5 3.5 3.5h3.75v2.1l-2.67 1.78c-.34.23-.43.69-.2 1.04.23.34.69.43 1.04.2L12 19.9l2.58 1.72a.751.751 0 0 0 .84-1.24l-2.67-1.78v-2.1h3.75c2.29 0 3.5-1.21 3.5-3.5V3.75h1a.75.75 0 0 0 0-1.5ZM9.25 12.5a.75.75 0 0 1-1.5 0v-4a.75.75 0 0 1 1.5 0v4Zm3.5 0a.75.75 0 0 1-1.5 0v-6a.75.75 0 0 1 1.5 0v6Zm3.5 0a.75.75 0 0 1-1.5 0v-2a.75.75 0 0 1 1.5 0v2Z"/></svg>
